remix/Design/contrast-2-line.svg

<svg viewBox="0 0 24 24" fill="currentColor" xmlns="http://www.w3.org/2000/svg"><path d="M12 21.9967C6.47715 21.9967 2 17.5196 2 11.9967C2 6.47386 6.47715 1.9967 12 1.9967C17.5228 1.9967 22 6.47386 22 11.9967C22 17.5196 17.5228 21.9967 12 21.9967ZM12 19.9967C16.4183 19.9967 20 16.415 20 11.9967C20 7.57843 16.4183 3.9967 12 3.9967C7.58172 3.9967 4 7.57843 4 11.9967C4 16.415 7.58172 19.9967 12 19.9967ZM7.00035 15.316C9.07995 15.1646 11.117 14.2939 12.7071 12.7038C14.2972 11.1137 15.1679 9.07666 15.3193 6.99706C15.6454 7.21408 15.955 7.46642 16.2426 7.75406C18.5858 10.0972 18.5858 13.8962 16.2426 16.2393C13.8995 18.5825 10.1005 18.5825 7.75736 16.2393C7.46971 15.9517 7.21738 15.6421 7.00035 15.316Z"/></svg>

<svg viewBox="0 0 24 24" xmlns="http://www.w3.org/2000/svg"><path fill="none" d="M0 0h24v24H0Z"/><path d="M12 22C6.477 22 2 17.523 2 12 2 6.477 6.477 2 12 2c5.523 0 10 4.477 10 10s-4.477 10-10 10Zm0-2v0c4.41 0 8-3.59 8-8 0-4.42-3.59-8-8-8v0c-4.42 0-8 3.58-8 8 0 4.41 3.58 8 8 8Zm-5-4.68h-.001c2.15-.16 4.18-1.09 5.7-2.62v0c1.53-1.53 2.45-3.56 2.61-5.71v0c2.75 1.83 3.5 5.56 1.66 8.32 -1.84 2.75-5.57 3.5-8.32 1.66 -.67-.44-1.23-1.01-1.67-1.67Z"/></svg>
